X: 1
T: Sweet's the Name of Peggy
C: Elmer Briand (1922-1992)
R: reel
Z: 2008 John Chambers <jc:trillian.mit.edu>
S: printed MS of unknown origin
M: C|
L: 1/8
K: Emix
|: "E"eBGE GBBc | "D"dAFD FAgf \
|  "E"eBGB egbg | "B7"aBfa "E"gee2 :|
[| "E"ebgb ebge | "D"defg adfd \
|  "E"ebgb ebge | "D"defa "E"gee2 |]
[| "E"ebgb ebge | "D"defg afdf \
|  "E"bgaf ge"D"fd | "C"e=gfa gb"D"af |]
